X:40
M:12/8
L:1/8
K:D
f | e2d Bcd e2A d2f | e2d BBA d3 faf | 
e2A Bcd e2A d2f | ege d2B A3 A2 :| 
a2g efg a2e d3 | ege d2B A3 A2 :|| 

